svgs/converter_now.svg

<svg xmlns="http://www.w3.org/2000/svg" viewBox="0 0 192 192"><path d="M16.322 137.995c.26-19.155.333-19.987 2.255-25.715 5.982-17.829 20.819-31.505 38.484-35.474 6.061-1.362 8.557-1.408 68.064-1.272L176 75.65v19.197l-57.535.206-57.534.207-5.812 2.775c-13.064 6.238-20.242 18.317-19.589 32.966l.241 5.402 17.39-19.998 17.39-19.997 11.47-.008c6.308-.004 11.877.252 12.375.568.607.386-9.028 10.498-29.251 30.698l-30.156 30.123H16.054Zm75.789-66.23c.808-.916 3.725-4.232 6.483-7.37l5.014-5.704-2.099-.555c-1.154-.304-9.625-.568-18.824-.585-16.72-.031-16.725-.031-14.43-1.428 10.494-6.387 34.084-14.571 52.245-18.125 9.408-1.842 23.43-3.787 27.291-3.787 3.076 0 5.269 1.72 5.269 4.134 0 .875-6.513 7.936-16.841 18.256l-16.84 16.829H90.643Z"/></svg>

<svg
    xmlns="http://www.w3.org/2000/svg"
    viewBox="0 0 192 192"
    id="vector">
    <path
        id="path"
        d="M 16.322 137.995 C 16.582 118.84 16.655 118.008 18.577 112.28 C 24.559 94.451 39.396 80.775 57.061 76.806 C 63.122 75.444 65.618 75.398 125.125 75.534 L 176 75.65 L 176 94.847 L 118.465 95.053 L 60.931 95.26 L 55.119 98.035 C 42.055 104.273 34.877 116.352 35.53 131.001 L 35.771 136.403 L 53.161 116.405 L 70.551 96.408 L 82.021 96.4 C 88.329 96.396 93.898 96.652 94.396 96.968 C 95.003 97.354 85.368 107.466 65.145 127.666 L 34.989 157.789 L 16.054 157.789 Z M 92.111 71.765 C 92.919 70.849 95.836 67.533 98.594 64.395 L 103.608 58.691 L 101.509 58.136 C 100.355 57.832 91.884 57.568 82.685 57.551 C 65.965 57.52 65.96 57.52 68.255 56.123 C 78.749 49.736 102.339 41.552 120.5 37.998 C 129.908 36.156 143.93 34.211 147.791 34.211 C 150.867 34.211 153.06 35.931 153.06 38.345 C 153.06 39.22 146.547 46.281 136.219 56.601 L 119.379 73.43 L 90.643 73.43 Z"
        fill="#000000"
        stroke-width="12"/>
</svg>
